X: 41
T:Limping Sal
S:https://tunearch.org/wiki/Limping_Sal
M:2/4
L:1/8
R:Reel
K:G
e/f/|gg e/d/B/d/|gg f/g/a/f/|gg e/d/B/G/|A/G/E/F/ Ge/f/|
gg e/d/B/d/|gg f/g/a/f/|gg e/d/B/G/|A/G/E/F/ G:|
|:G/E/|DB, D/E/G/A/|BB A/G/E/G/|DB, Dc|(3B/c/B/A/F GG/E/|
DB, D/E/G/A/|BB A/G/E/G/|DB, Dd/c/|(3B/c/B A/F/ G:|]

